X: 31495
T: Paddy Whack
R: jig
M: 6/8
K: Gmajor
|:GAB c2e|dBG AFD|GBd efg|fd^c def|
g3 afd|cde dBG|GAB cAd|BGG G2D:|
|:GBd g3|edc BcA|GBd efg|fd^c def|
g3 afd|cde dBG|GAB cAd|BGG G2D:|

